X:1
T:Ed Yother's Reel #1
C:Ed Yother
C:c.2016
C:http://edyother.com
K:Edor
R:Reel
M:4/4
EAAG EDB,D | GBAd cAGF | EAAG EDB,G, | (3A,B,A, A,B, GB,A,2 |
EAAG EDB,D | (3DEF AB dBAG | EAAG EDB,G, | (3A,B,A, A,B, GB,A,2 |
|: EAAd cAGF | Eeef gfed | (3BcB Bc dcBA | FBAF EDB,D :|

%%newpage
%%begintext
Jigs
%%endtext


